!!!SOCIAL_FUNCTION:	miscellaneous songs
!!!PDT:	1932
!!!OTL: No_130_Yaqui_Song.krn
!!!REG: Southwest
!!!LANG: Non-Tone
!!!LING_GROUP: Yuman-Cochimi
**kern
*staff1
=1-
*clefF4
*k[f#c#g#d#a#]
*M2/4
4d#\
4c#\
=2
4B\
4B\
=3
4A#\
4B\
=4||
*M3/4
4c#\
4A#\
4B\
=5
4c#\
4r
4A#\
=6||
*M2/4
4e\
4e\
=7
4d#\
4e\
=8
(4d#\
4G#\)
=9||
*M3/4
(4G#\
4B\)
4A#\
=10
2B\
4r
=11||
*M2/4
2d#\
=12
4B\
4B\
=13
4A#\
4B\
=14||
*M3/4
4c#\
4A#\
4B\
=15
2c#\
4r
=16||
*M2/4
2e\
=17
4d#\
4e\
=18
4d#\
4G#\
=19||
*M3/4
4G#\
4B\
4A#\
=20
2B\
4r
==
*-
